www/assets/icons/settings_accessibility.svg

<svg xmlns="http://www.w3.org/2000/svg" width="24" height="24" viewBox="0 0 24 24" fill='currentColor'><path d="M20.5 4c-2.61.7-5.67 1-8.5 1s-5.89-.3-8.5-1L3 6c1.86.5 4 .83 6 1v12h2v-6h2v6h2V7c2-.17 4.14-.5 6-1zM12 4c1.1 0 2-.9 2-2s-.9-2-2-2-2 .9-2 2 .9 2 2 2M7 24h2v-2H7zm4 0h2v-2h-2zm4 0h2v-2h-2z"/></svg>

<svg width="24" height="24" viewBox="0 0 24 24" xmlns="http://www.w3.org/2000/svg" fill='currentColor'><path d="M20.5 4C17.89 4.7 14.83 5 12 5C9.17 5 6.11 4.7 3.5 4L3 6C4.86 6.5 7 6.83 9 7V19H11V13H13V19H15V7C17 6.83 19.14 6.5 21 6L20.5 4ZM12 4C13.1 4 14 3.1 14 2C14 0.9 13.1 0 12 0C10.9 0 10 0.9 10 2C10 3.1 10.9 4 12 4ZM7 24H9V22H7V24ZM11 24H13V22H11V24ZM15 24H17V22H15V24Z"/></svg>
